MODULE Module1
    PERS robtarget Percurso0:=[[684.28174271,422.890631835,606.658973719],[0.286566774,-0.344122607,0.868275717,-0.21343944],[0,-1,0,0],[9E+09,9E+09,9E+09,9E+09,9E+09,9E+09]];
    CONST robtarget Percurso1_1:=[[1095.592082979,283.508823034,10],[0.211831742,-0.254690824,0.841289852,-0.427189983],[0,-2,0,0],[9E+09,9E+09,9E+09,9E+09,9E+09,9E+09]];
    CONST robtarget Percurso1_2:=[[1095.592082979,261.508823034,10],[0.211831742,-0.254690824,0.841289852,-0.427189983],[0,-2,0,0],[9E+09,9E+09,9E+09,9E+09,9E+09,9E+09]];
    CONST robtarget Percurso2_1:=[[1095.592082979,261.508823034,10],[0.211831742,-0.254690824,0.841289852,-0.427189983],[0,-2,0,0],[9E+09,9E+09,9E+09,9E+09,9E+09,9E+09]];
    CONST robtarget Percurso2_2:=[[1093.395383838,256.205522175,10],[0.169338886,-0.311217565,0.798315478,-0.486991135],[0,-1,0,0],[9E+09,9E+09,9E+09,9E+09,9E+09,9E+09]];
    CONST robtarget Percurso2_3:=[[1088.092082979,254.008823034,10],[0.173677741,-0.257380909,0.802762463,-0.509081071],[0,-1,0,0],[9E+09,9E+09,9E+09,9E+09,9E+09,9E+09]];
    CONST robtarget Percurso3_1:=[[1088.092082979,254.008823034,10],[0.173677741,-0.257380909,0.802762463,-0.509081071],[0,-1,0,0],[9E+09,9E+09,9E+09,9E+09,9E+09,9E+09]];
    CONST robtarget Percurso3_2:=[[1028.592082979,254.008823034,10],[0.17174816,-0.130702877,0.85891885,-0.464411171],[0,-1,0,0],[9E+09,9E+09,9E+09,9E+09,9E+09,9E+09]];
    CONST robtarget Percurso4_1:=[[1028.592082979,254.008823034,10],[0.17174816,-0.130702877,0.85891885,-0.464411171],[0,-1,0,0],[9E+09,9E+09,9E+09,9E+09,9E+09,9E+09]];
    CONST robtarget Percurso4_2:=[[1026.470762636,253.130143378,10],[0.173734642,-0.340973436,0.82318269,-0.419432533],[0,-1,0,0],[9E+09,9E+09,9E+09,9E+09,9E+09,9E+09]];
    CONST robtarget Percurso4_3:=[[1025.592082979,251.008823034,10],[0.173982108,-0.418015108,0.780259747,-0.431495449],[0,1,1,0],[9E+09,9E+09,9E+09,9E+09,9E+09,9E+09]];
    CONST robtarget Percurso5_1:=[[1025.592082979,251.008823034,10],[0.173982108,-0.418015108,0.780259747,-0.431495449],[0,-2,0,0],[9E+09,9E+09,9E+09,9E+09,9E+09,9E+09]];
    CONST robtarget Percurso5_2:=[[1025.592082979,148.008823034,10],[0.284515201,0.130619359,0.923667581,0.220970324],[0,-2,1,0],[9E+09,9E+09,9E+09,9E+09,9E+09,9E+09]];
    CONST robtarget Percurso6_1:=[[1025.592082979,148.008823034,10],[0.284515201,0.130619359,0.923667581,0.220970324],[0,-2,1,0],[9E+09,9E+09,9E+09,9E+09,9E+09,9E+09]];
    CONST robtarget Percurso6_2:=[[1026.470762636,145.887502691,10],[0.272175681,0.153741969,0.879222793,0.359515071],[0,-2,1,0],[9E+09,9E+09,9E+09,9E+09,9E+09,9E+09]];
    CONST robtarget Percurso6_3:=[[1028.592082979,145.008823034,10],[0.202966056,0.124502572,0.894382999,0.378659399],[0,-2,2,0],[9E+09,9E+09,9E+09,9E+09,9E+09,9E+09]];
    CONST robtarget Percurso7_1:=[[1028.592082979,145.008823034,10],[0.202966056,0.124502572,0.894382999,0.378659399],[0,-2,2,0],[9E+09,9E+09,9E+09,9E+09,9E+09,9E+09]];
    CONST robtarget Percurso7_2:=[[1088.092100886,145.008803095,9.999980964],[0.273296254,0.038668354,0.894306719,0.352178091],[0,-3,2,0],[9E+09,9E+09,9E+09,9E+09,9E+09,9E+09]];
    CONST robtarget Percurso8_1:=[[1088.092082979,145.008823034,10],[0.273296254,0.038668354,0.894306719,0.352178091],[0,-3,2,0],[9E+09,9E+09,9E+09,9E+09,9E+09,9E+09]];
    CONST robtarget Percurso8_2:=[[1093.395383838,142.812123893,10],[0.289400426,0.119438271,0.892053566,0.32591767],[0,-2,2,0],[9E+09,9E+09,9E+09,9E+09,9E+09,9E+09]];
    CONST robtarget Percurso8_3:=[[1095.592082979,137.508823034,10],[0.321362884,0.053824307,0.888204521,0.323915993],[0,-2,2,0],[9E+09,9E+09,9E+09,9E+09,9E+09,9E+09]];
    CONST robtarget Percurso9_1:=[[1095.592082979,137.508823034,10],[0.321362884,0.053824307,0.888204521,0.323915993],[0,-2,2,0],[9E+09,9E+09,9E+09,9E+09,9E+09,9E+09]];
    CONST robtarget Percurso9_2:=[[1095.592082979,115.508823034,10],[0.283456138,0.033358648,0.895632756,0.341147746],[-1,-3,2,0],[9E+09,9E+09,9E+09,9E+09,9E+09,9E+09]];
    CONST robtarget Percurso10_1:=[[1095.592082979,-26.982176966,10],[0.211831742,-0.254690824,0.841289852,-0.427189983],[0,-1,-1,1],[9E+09,9E+09,9E+09,9E+09,9E+09,9E+09]];
    CONST robtarget Percurso10_2:=[[1095.592082979,-48.982176966,10],[0.211831742,-0.254690824,0.841289852,-0.427189983],[-1,-1,-1,1],[9E+09,9E+09,9E+09,9E+09,9E+09,9E+09]];
    CONST robtarget Percurso11_1:=[[1095.592082979,-48.982176966,10],[0.211831742,-0.254690824,0.841289852,-0.427189983],[-1,-1,-1,1],[9E+09,9E+09,9E+09,9E+09,9E+09,9E+09]];
    CONST robtarget Percurso11_2:=[[1093.395383838,-54.285477825,10],[0.139613737,-0.368893016,0.758243173,-0.519127381],[-1,-1,-1,1],[9E+09,9E+09,9E+09,9E+09,9E+09,9E+09]];
    CONST robtarget Percurso11_3:=[[1088.092082979,-56.482176966,10],[0.149741776,-0.102178725,0.891939691,-0.414222761],[0,0,-2,1],[9E+09,9E+09,9E+09,9E+09,9E+09,9E+09]];
    CONST robtarget Percurso12_1:=[[1088.092082979,-56.482176966,10],[0.149741776,-0.102178725,0.891939691,-0.414222761],[0,0,-2,1],[9E+09,9E+09,9E+09,9E+09,9E+09,9E+09]];
    CONST robtarget Percurso12_2:=[[1028.592082979,-56.482176966,10],[0.108157814,-0.087584471,0.857597304,-0.495134034],[0,0,-2,1],[9E+09,9E+09,9E+09,9E+09,9E+09,9E+09]];
    CONST robtarget Percurso13_1:=[[1028.592082979,-56.482176966,10],[0.108157814,-0.087584471,0.857597304,-0.495134034],[0,0,-2,1],[9E+09,9E+09,9E+09,9E+09,9E+09,9E+09]];
    CONST robtarget Percurso13_2:=[[1026.470762636,-57.360856622,10],[0.037805909,-0.31674005,0.811937274,-0.488880677],[-1,0,-2,0],[9E+09,9E+09,9E+09,9E+09,9E+09,9E+09]];
    CONST robtarget Percurso13_3:=[[1025.592082979,-59.482176966,10],[0.173982108,-0.418015108,0.780259747,-0.431495449],[-1,-1,-1,1],[9E+09,9E+09,9E+09,9E+09,9E+09,9E+09]];
    CONST robtarget Percurso14_1:=[[1025.592082979,-59.482176966,10],[0.173982108,-0.418015108,0.780259747,-0.431495449],[-1,0,-2,0],[9E+09,9E+09,9E+09,9E+09,9E+09,9E+09]];
    CONST robtarget Percurso14_2:=[[1025.592082979,-162.482176966,10],[0.284515201,0.130619359,0.923667581,0.220970324],[-1,1,-2,0],[9E+09,9E+09,9E+09,9E+09,9E+09,9E+09]];
    CONST robtarget Percurso15_1:=[[1025.592082979,-162.482176966,10],[0.284515201,0.130619359,0.923667581,0.220970324],[-1,1,-2,0],[9E+09,9E+09,9E+09,9E+09,9E+09,9E+09]];
    CONST robtarget Percurso15_2:=[[1026.470762636,-164.603497309,10],[0.272175681,0.153741969,0.879222793,0.359515071],[-1,1,-2,0],[9E+09,9E+09,9E+09,9E+09,9E+09,9E+09]];
    CONST robtarget Percurso15_3:=[[1028.592082979,-165.482176966,10],[0.202966056,0.124502572,0.894382999,0.378659399],[-1,1,-1,0],[9E+09,9E+09,9E+09,9E+09,9E+09,9E+09]];
    CONST robtarget Percurso16_1:=[[1028.592082979,-165.482176966,10],[0.202966056,0.124502572,0.894382999,0.378659399],[-1,1,-1,0],[9E+09,9E+09,9E+09,9E+09,9E+09,9E+09]];
    CONST robtarget Percurso16_2:=[[1088.092100886,-165.482196905,9.999980964],[0.273296254,0.038668354,0.894306719,0.352178091],[-1,1,-2,0],[9E+09,9E+09,9E+09,9E+09,9E+09,9E+09]];
    CONST robtarget Percurso17_1:=[[1088.092082979,-165.482176966,10],[0.273296254,0.038668354,0.894306719,0.352178091],[-1,1,-2,0],[9E+09,9E+09,9E+09,9E+09,9E+09,9E+09]];
    CONST robtarget Percurso17_2:=[[1093.395383838,-167.678876107,10],[0.289400426,0.119438271,0.892053566,0.32591767],[-1,1,-2,0],[9E+09,9E+09,9E+09,9E+09,9E+09,9E+09]];
    CONST robtarget Percurso17_3:=[[1095.592082979,-172.982176966,10],[0.321362884,0.053824307,0.888204521,0.323915993],[-1,1,-2,0],[9E+09,9E+09,9E+09,9E+09,9E+09,9E+09]];
    CONST robtarget Percurso18_1:=[[1095.592082979,-172.982176966,10],[0.321362884,0.053824307,0.888204521,0.323915993],[-1,1,-2,0],[9E+09,9E+09,9E+09,9E+09,9E+09,9E+09]];
    CONST robtarget Percurso18_2:=[[1095.592082979,-194.982176966,10],[0.283154239,0.035830968,0.898575691,0.333318985],[-1,1,-2,0],[9E+09,9E+09,9E+09,9E+09,9E+09,9E+09]];
    PERS robtarget Percurso0_2:=[[684.28174271,111.908631835,606.658973719],[0.264427438,-0.085751576,0.960502339,0.012651252],[-1,-1,1,1],[9E+09,9E+09,9E+09,9E+09,9E+09,9E+09]];
    PERS robtarget Percurso0_3:=[[684.28174271,-248.091368165,606.658973719],[0.264427438,-0.085751576,0.960502339,0.012651252],[-1,-1,1,1],[9E+09,9E+09,9E+09,9E+09,9E+09,9E+09]];

    
    !***********************************************************
    !
    ! Module:  Module1
    !
    ! Description:
    !   <Insert description here>
    !
    ! Author: luanc
    !
    ! Version: 1.0
    !
    !***********************************************************
    !Projeto teste 3
    
    !***********************************************************
    !
    ! Procedure main
    !
    !   This is the entry point of your program
    !
    !***********************************************************
    PROC main()
        MoveJ Percurso0,v100,z60,AW_Gun\WObj:=wobj0;
        Peca1;
        MoveJ Percurso0_2,v100,z60,AW_Gun\WObj:=wobj0;
        Peca2;
        MoveJ Percurso0_3,v100,z60,AW_Gun\WObj:=wobj0;
        MoveJ Percurso0,v100,z60,AW_Gun\WObj:=wobj0;
        
        
    ENDPROC
    
    PROC Peca1()
        Percurso1;
        Percurso2;
        Percurso3;
        Percurso4;
        Percurso5;
        Percurso6;
        Percurso7;
        Percurso8;
        Percurso9;
    ENDPROC
    
    PROC Peca2()
        Percurso10;
        Percurso11;
        Percurso12;
        Percurso13;
        Percurso14;
        Percurso15;
        Percurso16;
        Percurso17;
        Percurso18;
    ENDPROC
    
    
    PROC Percurso1()
        MoveL Percurso1_1,v100,z10,AW_Gun\WObj:=wobj0;
        MoveL Percurso1_2,v30,z10,AW_Gun\WObj:=wobj0;
    ENDPROC
    PROC Percurso2()
        MoveL Percurso2_1,v30,z100,AW_Gun\WObj:=wobj0;
        MoveC Percurso2_2,Percurso2_3,v30,fine,AW_Gun\WObj:=wobj0;
    ENDPROC
    PROC Percurso3()
        MoveL Percurso3_1,v30,z10,AW_Gun\WObj:=wobj0;
        MoveL Percurso3_2,v30,z10,AW_Gun\WObj:=wobj0;
    ENDPROC
    PROC Percurso4()
        ConfL\Off;
        MoveL Percurso4_1,v30,z10,AW_Gun\WObj:=wobj0;
        MoveC Percurso4_2,Percurso4_3,v30,fine,AW_Gun\WObj:=wobj0;
    ENDPROC
    PROC Percurso5()
        MoveL Percurso5_1,v30,z10,AW_Gun\WObj:=wobj0;
        MoveL Percurso5_2,v30,z10,AW_Gun\WObj:=wobj0;
    ENDPROC
        PROC Percurso6()
        MoveL Percurso6_1,v30,z10,AW_Gun\WObj:=wobj0;
        MoveC Percurso6_2,Percurso6_3,v30,fine,AW_Gun\WObj:=wobj0;
    ENDPROC
    PROC Percurso7()
        MoveL Percurso7_1,v30,z10,AW_Gun\WObj:=wobj0;
        MoveL Percurso7_2,v30,z10,AW_Gun\WObj:=wobj0;
    ENDPROC
    PROC Percurso8()
        MoveL Percurso8_1,v30,z10,AW_Gun\WObj:=wobj0;
        MoveC Percurso8_2,Percurso8_3,v30,fine,AW_Gun\WObj:=wobj0;
    ENDPROC
    PROC Percurso9()
        MoveL Percurso9_1,v30,z10,AW_Gun\WObj:=wobj0;
        MoveL Percurso9_2,v30,z10,AW_Gun\WObj:=wobj0;
    ENDPROC
        PROC Percurso10()
        MoveJ Percurso10_1,v100,z10,AW_Gun\WObj:=wobj0;
        MoveL Percurso10_2,v100,z10,AW_Gun\WObj:=wobj0;
    ENDPROC
        PROC Percurso11()
        MoveL Percurso11_1,v30,z10,AW_Gun\WObj:=wobj0;
        MoveC Percurso11_2,Percurso11_3,v30,fine,AW_Gun\WObj:=wobj0;
    ENDPROC
        PROC Percurso12()
		MoveL Percurso12_1,v100,z10,AW_Gun\WObj:=wobj0;
		MoveL Percurso12_2,v100,z10,AW_Gun\WObj:=wobj0;
    ENDPROC
        PROC Percurso13()
        ConfL\Off;
        MoveL Percurso13_1,v100,z10,AW_Gun\WObj:=wobj0;
        MoveC Percurso13_2,Percurso13_3,v30,fine,AW_Gun\WObj:=wobj0;
    ENDPROC
        PROC Percurso14()
        MoveL Percurso14_1,v100,z10,AW_Gun\WObj:=wobj0;
        MoveL Percurso14_2,v100,z10,AW_Gun\WObj:=wobj0;
    ENDPROC
        PROC Percurso15()
        MoveL Percurso15_1,v100,z10,AW_Gun\WObj:=wobj0;
        MoveC Percurso15_2,Percurso15_3,v30,fine,AW_Gun\WObj:=wobj0;
    ENDPROC
        PROC Percurso16()
        MoveL Percurso16_1,v100,z10,AW_Gun\WObj:=wobj0;
        MoveL Percurso16_2,v100,z10,AW_Gun\WObj:=wobj0;
    ENDPROC
        PROC Percurso17()
        MoveL Percurso17_1,v100,z10,AW_Gun\WObj:=wobj0;
        MoveC Percurso17_2,Percurso17_3,v30,fine,AW_Gun\WObj:=wobj0;
    ENDPROC
        PROC Percurso18()
        MoveL Percurso18_1,v100,z10,AW_Gun\WObj:=wobj0;
        MoveL Percurso18_2,v100,z10,AW_Gun\WObj:=wobj0;
    ENDPROC
ENDMODULE
